X: 1
T: Ja m\aa han/hon leva    [G]
O: trad. Sweden
R: march
S: https://en.m.wikipedia.org/wiki/Ja,_m%C3%A5_han_(hon)_leva
Z: 2019 John Chambers <jc:trillian.mit.edu>
M: C
L: 1/8
K: G
P: Version 1:
[| "G"G2 G>G G2 D2 | B2 B>B B2 G2 | d2 d>d ed cB | "D7"B2 A>A A2 z2 |
w: Ja, m\aa han le-va, ja, m\aa han le-va, ja, m\aa han le-va ut-i hun-dra-de \aar!
w: ~   ~    hon ~  ~   ~   ~    hon ~  ~   ~   ~    hon ~  ~  ~  ~ ~   ~   ~   ~
|  "D7"c2 c>B A2 A2 | "G"B2 B>A G2 G2 | "D7"A2 A>A GF EF | G2 B>d G4 |]
w: Ja, m\aa han le-va, ja, m\aa han le-va, ja, m\aa han le-va ut-i hun-dra-de \aar!
w: ~   ~    hon ~  ~   ~   ~    hon ~  ~   ~   ~    hon ~  ~  ~  ~ ~   ~   ~   ~
%
P: Version 2:
[| "G"G2 G>G G2 D2 | B2 B>B B2 G2 | d2 d>d ed cB | "D7"B2 A>A A3 B |
w: Ja, m\aa han le-va, ja, m\aa han le-va, ja, m\aa han le-va ut-i hun-dra-de \aar! Ja-
|  "D7"c2 c>B A2 A>A | "G"B2 B>A G2 G>G | "D7"A2 A>A GF EF | "G"G2 Bd G4 |]
w: visst ska hon le-va, ja-visst ska hon le-va, ja-visst ska hon le-va ut-i hun-dra-de \aar!
